X: 20046
T: Jimmy Giblin's
R: reel
M: 4/4
K: Dmajor
DFAB d2 ef|g2 fa edBd|DFAB dfed|dBAF E2 D2:|
faaf d3 f|g2 fa edBd|faaf d3 f|gafg e3 g|
faaf d3 f|g2 fa edBd|DFAB dfed|dBAF E2 D2:|

